X: 649
T: Lord McDonald's reel
C: anon.
O: Ireland
B: Francis O'Neill: "The Dance Music of Ireland" (1907) no. 649
R: Reel
Z: Transcribed by Frank Nordberg - http://www.musicaviva.com
F: http://www.musicaviva.com/abc/tunes/ireland/oneill-1001/oneill-1001-064
9.abc
m: Tn3 = n(3n/o/n/ m/n/
M: C|
L: 1/8
K: G
B|Td3e dBgB|dBgB aAAB|Td3e dBgB|AcBA BGGB|Bdde dBgB|dBgB aAAc|Bdde dBgB|A
cBA BGG||
B|dgbg agbg|dgbg ageg|dgbg agbg|dedc BGGE|DGBG AGBG|DGBG AGEG|BAGF GFED|E
FGA BGG|]
W:
W:
W: From Musica Viva - http://www.musicaviva.com
W: the Internet center for free sheet music downloads.


